src/assets/svg/icons/fa/nuevos/classic/light/circle-nodes classic light.svg

<svg xmlns="http://www.w3.org/2000/svg" viewBox="0 0 512 512"><!--! Font Awesome Pro 6.4.0 by @fontawesome - https://fontawesome.com License - https://fontawesome.com/license (Commercial License) Copyright 2023 Fonticons, Inc. --><path d="M376.2 121.7l0 0c7 4 15.2 6.3 23.8 6.3c2.6 0 5.2-.2 7.6-.6l0 0C430.5 123.7 448 103.9 448 80c0-26.5-21.5-48-48-48s-48 21.5-48 48c0 .7 0 1.3 0 2l0 0c.5 11.4 4.9 21.7 11.9 29.7l0 0c3.5 4 7.6 7.4 12.2 10zm-5.9 32.6c-15.2-6.1-28.2-16.8-37.1-30.3L158.7 193.7c.8 4.6 1.3 9.4 1.3 14.3c0 14.4-3.8 27.9-10.5 39.6l138 120.8c13-9.9 29.2-16 46.7-16.3l36-197.7zm-4.5 203.4C395.2 369.5 416 398.3 416 432c0 44.2-35.8 80-80 80s-80-35.8-80-80c0-14.4 3.8-27.9 10.5-39.6l-138-120.8C115 281.9 98.2 288 80 288c-44.2 0-80-35.8-80-80s35.8-80 80-80c27.9 0 52.5 14.3 66.8 36L321.3 94.3c-.8-4.6-1.3-9.4-1.3-14.3c0-44.2 35.8-80 80-80s80 35.8 80 80c0 43.6-34.9 79.1-78.3 80l-36 197.7zm-246-122.9c.7-1 1.3-2 1.9-3.1c4-7 6.3-15.1 6.3-23.8c0-26.5-21.5-48-48-48s-48 21.5-48 48s21.5 48 48 48c8.5 0 16.6-2.2 23.5-6.2l0 0c6.5-3.7 12.1-8.8 16.3-15zM291.4 414.2c-2.2 5.5-3.4 11.5-3.4 17.8c0 26.5 21.5 48 48 48s48-21.5 48-48s-21.5-48-48-48c-14 0-26.6 6-35.3 15.5c-2.7 2.9-5 6.1-6.9 9.6c-.9 1.6-1.7 3.4-2.4 5.1l0 0z"/></svg>

<svg xmlns="http://www.w3.org/2000/svg" viewBox="0 0 512 512"><path d="M365.8 357.7C395.2 369.5 416 398.3 416 432C416 476.2 380.2 512 336 512C291.8 512 256 476.2 256 432C256 417.6 259.8 404.1 266.5 392.4L128.5 271.7C115 281.9 98.22 288 80 288C35.82 288 0 252.2 0 208C0 163.8 35.82 128 80 128C107.9 128 132.5 142.3 146.8 164L321.3 94.26C320.4 89.63 320 84.87 320 80C320 35.82 355.8 0 400 0C444.2 0 480 35.82 480 80C480 123.6 445.1 159.1 401.7 159.1L365.8 357.7zM376.2 121.7C383.2 125.7 391.3 127.1 400 127.1C402.6 127.1 405.2 127.8 407.6 127.4C430.5 123.7 448 103.9 448 80C448 53.49 426.5 32 400 32C373.5 32 352 53.49 352 80C352 80.65 352 81.3 352 81.95C352.5 93.32 356.9 103.7 363.9 111.7C367.4 115.6 371.5 119 376.2 121.7V121.7zM370.2 154.3C354.1 148.2 342.1 137.5 333.2 123.1L158.7 193.7C159.6 198.4 160 203.1 160 208C160 222.4 156.2 235.9 149.5 247.6L287.5 368.3C300.6 358.4 316.7 352.4 334.3 352L370.2 154.3zM121.7 231.8C125.7 224.8 128 216.7 128 208C128 181.5 106.5 160 80 160C53.49 160 32 181.5 32 208C32 234.5 53.49 256 80 256C88.55 256 96.58 253.8 103.5 249.8C110.1 246.2 115.6 241 119.8 234.8C120.5 233.8 121.1 232.8 121.7 231.8L121.7 231.8zM291.4 414.2C289.2 419.7 288 425.7 288 432C288 458.5 309.5 480 336 480C362.5 480 384 458.5 384 432C384 405.5 362.5 384 336 384C321.9 384 309.3 390.1 300.5 399.7C297.4 403.1 294.8 406.1 292.7 411.2C292.3 412.2 291.8 413.2 291.4 414.2L291.4 414.2z"/></svg>
